icons/tag-chevron-up.svg

<svg xmlns="http://www.w3.org/2000/svg" width="24" height="24" viewBox="0 0 24 24">
  <path d="M13,2 C13.2652165,2 13.5195704,2.10535684 13.7071068,2.29289322 L13.7071068,2.29289322 L21.2928932,9.87867966 C22.4644661,11.0502525 22.4644661,12.9497475 21.2928932,14.1213203 L21.2928932,14.1213203 L14.1213203,21.2928932 C12.9497475,22.4644661 11.0502525,22.4644661 9.87867966,21.2928932 L9.87867966,21.2928932 L2.29289322,13.7071068 C2.10535684,13.5195704 2,13.2652165 2,13 L2,13 L2,5 C2,3.34314575 3.34314575,2 5,2 L5,2 Z M12.6128994,9.70970461 C12.2206082,9.40467972 11.6533772,9.43240926 11.2928932,9.79289322 L11.2928932,9.79289322 L8.29289322,12.7928932 L8.20970461,12.8871006 C7.90467972,13.2793918 7.93240926,13.8466228 8.29289322,14.2071068 L8.29289322,14.2071068 L8.38710056,14.2902954 C8.77939176,14.5953203 9.34662282,14.5675907 9.70710678,14.2071068 L9.70710678,14.2071068 L12,11.915 L14.2928932,14.2071068 L14.3871006,14.2902954 C14.7793918,14.5953203 15.3466228,14.5675907 15.7071068,14.2071068 C16.0976311,13.8165825 16.0976311,13.1834175 15.7071068,12.7928932 L15.7071068,12.7928932 L12.7071068,9.79289322 Z"/>
</svg>

<svg xmlns="http://www.w3.org/2000/svg" viewBox="0 0 24 24">
  <path d="M13 2a1 1 0 0 1 .7.3l7.6 7.58a3 3 0 0 1 0 4.24l-7.18 7.17a3 3 0 0 1-4.24 0l-7.59-7.58A1 1 0 0 1 2 13V5a3 3 0 0 1 3-3zm-.39 7.71a1 1 0 0 0-1.32.08l-3 3-.08.1a1 1 0 0 0 .08 1.32l.1.08a1 1 0 0 0 1.32-.08L12 11.9l2.3 2.3.09.08a1 1 0 0 0 1.32-1.5l-3-3z"/>
</svg>
